!!!COM: Haydn, Franz Joseph
!!!OTL: String Quartet in C Major
!!!OPS: Opus 33
!!!ONM: No. 3
!!!OMD: Adagio
!!!OMV: 3
!!!SCT: H III:39
!!!SCA: Thematisch-bibliographisches Werkevererzeichnis (A. van Hoboken)
!!!YOR: Richault Edition, volume 7
!!!ENC: Frances Bennion
!!!CDT: 1732/3/31/-1809/5/31/
!!!CNT: Oesterreich
!!!YEC: Copyright (c) 1994, 2000 Center for Computer Assisted Research in the Humanities
!!!YEM: Rights to all derivative editions reserved.
!!!YEM: Refer to licensing agreement for further details.
!!!YEN: United States of America
**kern	**kern	**kern	**kern
*k[b-]	*k[b-]	*k[b-]	*k[b-]
*F:	*F:	*F:	*F:
*clefF4	*clefC3	*clefF	*clefF
*M3/4	*M3/4	*M3/4	*M3/4
4F	4c	4a	8.cc
.	.	.	32dd
.	.	.	32cc
4G	4e	4g	4b-
4A	4f	4f	4a
=2	=2	=2	=2
4B-	[4c	4e	8.g
.	.	.	16e
8A	8c]	8f	8f
8E	8e	8c	8g
8F	8f	8c	8a
8D	8f	8f	8b-
=3	=3	=3	=3
4AA	4f	2f	8.cc
.	.	.	32b-
.	.	.	32cc
2BB-	2d	.	8dd
.	.	.	8d
.	.	8d	8b-
.	.	8B-	8g
=4	=4	=4	=4
2C	4.c	4A	4f
.	.	8G	8e
.	8c	4.r	4.r
4r	8c	.	.
.	8c	.	.
=5	=5	=5	=5
2c	4E	4g	8.b-
.	.	.	32cc
.	.	.	32b-
.	4.c	4f	4a
4B-	.	4e	4g
.	8d-	.	.
=6	=6	=6	=6
[4A	4.c	[4f	8.cc
.	.	.	32dd
.	.	.	32ee
8A]	.	8f]	8ff
8E	8c	8b-	8gg
8F	8c	8a	8aa
8AA	8f	8cc	8ff
=7	=7	=7	=7
4BB-	8.f	8b-	8dd
.	.	16a	16cc
.	16d	16g	16b-
4C	8c	8f	8a
.	8c	8A	8cc
4C	8B-	8G	8e
.	8E	8B-	8g
=8	=8	=8	=8
4.FF	4E	4B-	4g
.	8F	8A	8f
8F	4.r	4.r	4.r
8A	.	.	.
8c	.	.	.
=9	=9	=9	=9
4f	2f	4a	8.cc
.	.	.	32dd
.	.	.	32cc
4d	.	4b	4ff
4c	4g	4cc	4ee
=10	=10	=10	=10
4F	2f	4a	8.dd
.	.	.	32ee
.	.	.	32dd
4D	.	4b	4aa
4E	4e	8cc	4gg
.	.	8ee	.
=11	=11	=11	=11
4A	4c	4ee	2ff
4B	8d	4dd	.
.	8g	.	.
4c	4g	4cc	4ee
=12	=12	=12	=12
4A-	4a-	4cc	4ee-
2F	2a-	4.dd-	4aa-
.	.	.	8ff
.	.	8f	8dd
=13	=13	=13	=13
2G	2g	4e-	2b
.	.	8d	.
.	.	8g	.
4r	4r	8g	4r
.	.	8g	.
=14	=14	=14	=14
2.r	8f	2.g	8dd
.	8r	.	16dd
.	.	.	16b
.	8e	.	16cc
.	.	.	16gg
.	8r	.	8gg
.	8f	.	8dd
.	8r	.	16dd
.	.	.	16b
=15	=15	=15	=15
2.r	8e	2.g	16cc
.	.	.	16gg
.	8r	.	8gg
.	8f	.	8dd
.	8r	.	16dd
.	.	.	16b
.	8e	.	16cc
.	.	.	16gg
.	8r	.	8gg
=16	=16	=16	=16
4F	4c	4a	16aa
.	.	.	16bb
.	.	.	8ccc
4r	4r	8r	8aa
.	.	8a	8ff
4G	4G	8f	8dd
.	.	8d	8b
=17	=17	=17	=17
4C	8c	4e	4cc
.	8g	.	.
4r	8g	4r	4r
.	8g	.	.
4c#	8g	4b-	8ee
.	8g	.	16ee
.	.	.	16a
=18	=18	=18	=18
8d	8f	8a	16a
.	.	.	16aa
8r	8f	8r	8aa
4B	8f	4a-	8dd
.	8f	.	16dd
.	.	.	16g
8c	8e	8g	16g
.	.	.	16gg
8r	8e	8r	8gg
=19	=19	=19	=19
4E	4c	4g 4cc	32c
.	.	.	16.e
.	.	.	32e
.	.	.	16.g
2r	2r	2r	32g
.	.	.	16.cc
.	.	.	32cc
.	.	.	16.ee
.	.	.	32ee
.	.	.	16.gg
.	.	.	32gg
.	.	.	16.ccc
=20	=20	=20	=20
8r	8r	4.g#	4.gg#
8F	8c	.	.
8F	8c	.	.
8F	8c	8a	8aa
8F	8d	8f	8ff
8F	8d	8f	8dd
=21	=21	=21	=21
8G	8e	8e	2cc
8G	8e	8e	.
8G	8g	8e	.
8G	8g	8e	.
8G	8B	8f	8.dd
8G	8B	8f	.
.	.	.	16cc
=22	=22	=22	=22
4c 4E	4c	4G 4e	32c
.	.	.	16.e
.	.	.	32e
.	.	.	16.g
2r	2r	2r	32g
.	.	.	16.cc
.	.	.	32cc
.	.	.	16.ee
.	.	.	32ee
.	.	.	16.gg
.	.	.	32gg
.	.	.	16.ccc
=23	=23	=23	=23
8r	8r	2a-	2aa-
8F	8c	.	.
8F	8c	.	.
8F	8c	.	.
8G	8e 8c	4b-	4gg
8G	8e 8c	.	.
=24	=24	=24	=24
8A	8e- 8c	4cc	4ff#
8A	8e- 8c	.	.
8B	8d 8G	4dd	4ff
8B	8G 8d	.	.
8c	8c	4g	4ee
8c	8c	.	.
=25	=25	=25	=25
[2F	[2d	[2a	[3..dd
8F]	8d]	8a]	.
.	.	.	24dd]
8G	8e	8b-	8cc#
=26	=26	=26	=26
8F	8d	8a	8dd
8r	8r	8r	8r
8D	8d	8a	8ff
8r	8r	8r	8r
4G	4d	4f	8.b
.	.	.	16cc
=27	=27	=27	=27
4C	8c	8e	4cc
.	8e	8g	.
4r	8c	8e	4r
.	8c	8e	.
4G	8d	8f	8.b
.	8d	8f	.
.	.	.	16cc
=28	=28	=28	=28
4C	8c	8e	4cc
.	8e	8g	.
4r	8c	8e	4r
.	8c	8e	.
4G	8d	8f	8.b
.	8d	8f	.
.	.	.	16cc
=29	=29	=29	=29
8C	4c	4e	4cc
8c	.	.	.
8c	8r	8r	2r
8B-	8e	8g	.
8A	8f	8a	.
8G	8e	8b-	.
=30	=30	=30	=30
4F	4f	4a	8.cc
.	.	.	32dd
.	.	.	32cc
4G	8g	4g	4b-
.	8e	.	.
4A	4f	4f	4a
=31	=31	=31	=31
4B-	[4c	4e	8.g
.	.	.	16e
8A	8c]	8f	8f
8E	8e	8c	24r
.	.	.	24f#
.	.	.	24g
8F	8f	8c	24r
.	.	.	24g#
.	.	.	24a
8D	8f	8f	24r
.	.	.	24a
.	.	.	24b-
=32	=32	=32	=32
4AA	4f	2f	24r
.	.	.	24b
.	.	.	24cc
.	.	.	24dd
.	.	.	24ee
.	.	.	24ff
4BB-	4B-	.	8cc#
.	.	.	24dd
.	.	.	24ee
.	.	.	24ff#
4r	4r	4r	24gg
.	.	.	24aa
.	.	.	24bb
.	.	.	24ccc
.	.	.	24ccc#
.	.	.	24ddd
=33	=33	=33	=33
4.C	4c	4a	8.ff
.	.	.	32gg
.	.	.	32ff
.	2r	8g	8ee
8c	.	4.r	4.r
8c	.	.	.
8c	.	.	.
=34	=34	=34	=34
2c	8g	4g	8.b-
.	8e	.	.
.	.	.	32cc
.	.	.	32b-
.	4.c	4f	4a
4B-	.	4e	4g
.	8d-	.	.
=35	=35	=35	=35
4.A	4.c	4.f	8.cc
.	.	.	32dd
.	.	.	32ee
.	.	.	8ff
8G	8e	8B-	32ee
.	.	.	32gg
.	.	.	32bb-
.	.	.	32gg
8A	8f	8c	32ff
.	.	.	32aa
.	.	.	32ccc
.	.	.	32aa
8A	8c	8f	32ee
.	.	.	32gg
.	.	.	32ff
.	.	.	32aa
=36	=36	=36	=36
4B-	4d	4..f	32cc#
.	.	.	32ee
.	.	.	32dd
.	.	.	32ff
.	.	.	16dd
.	.	.	32cc
.	.	.	32b-
4c	4c	.	32a
.	.	.	32b-
.	.	.	32a
.	.	.	32b-
.	.	.	16b
.	.	16A	16cc
4C	8.r	16G	16e
.	.	16G	16e
.	.	16A	16f
.	16E	16B-	16g
=37	=37	=37	=37
4.FF	4E	4B-	4g
.	8F	8A	8f
8F	4.r	4.r	4.r
8A	.	.	.
8c	.	.	.
=38	=38	=38	=38
4f	2f	4a	8.cc
.	.	.	32dd
.	.	.	32cc
4d	.	4b	4ff
4c	4g	4cc	4ee
=39	=39	=39	=39
4F	4f	4a	32dd
.	.	.	32cc#
.	.	.	32ee
.	.	.	32dd
.	.	.	32ff
.	.	.	32ee
.	.	.	32gg
.	.	.	32ff
4D	4f	4b	4aa
4E	4e	8cc	16gg
.	.	.	16bb
.	.	8ee	24ccc
.	.	.	24gg
.	.	.	24ee
=40	=40	=40	=40
4A	4c	4ee	4ff
4B	8d	4dd	32ff
.	.	.	32bb
.	.	.	32ddd
.	.	.	32bb
.	8g	.	32fff
.	.	.	32ddd
.	.	.	32bb
.	.	.	32ff
4c	4g	4cc	4ee
=41	=41	=41	=41
4A-	4a-	4cc	4ee-
2F	2a-	4.dd-	4aa- 4a-
.	.	.	8ff
.	.	8f	8dd
=42	=42	=42	=42
2G	2g	4e-	4cc
.	.	8d	4b
.	.	8g	.
4r	4r	8g	4r
.	.	8g	.
=43	=43	=43	=43
2.r	8f	8g	8dd
.	8r	8g	16dd
.	.	.	16b
.	8e	8g	16cc
.	.	.	16gg
.	8r	8g	8gg
.	8f	8g	24cc#
.	.	.	24dd
.	.	.	24ee
.	8r	8g	24ff
.	.	.	24dd
.	.	.	24b
=44	=44	=44	=44
2.r	8e	8g	24b
.	.	.	24cc
.	.	.	24ee
.	8r	8g	24ff#
.	.	.	24aa
.	.	.	24gg
.	8f	8g	32dd
.	.	.	32ff
.	.	.	32ee
.	.	.	32gg
.	8r	8g	32ff
.	.	.	32dd
.	.	.	32cc
.	.	.	32b
.	8e	8g	32cc
.	.	.	32ee
.	.	.	32dd
.	.	.	32ff
.	8r	8g	32ee
.	.	.	32gg
.	.	.	32ee
.	.	.	32cc
=45	=45	=45	=45
4F	4f	4c	32a
.	.	.	32aa
.	.	.	32b
.	.	.	32bb
.	.	.	32cc
.	.	.	32ccc
.	.	.	32cc
.	.	.	32ccc
4r	4r	8r	32a
.	.	.	32aa
.	.	.	32a
.	.	.	32aa
.	.	8a	32f
.	.	.	32ff
.	.	.	32f
.	.	.	32ff
4G	4g	8f	8d 8dd
.	.	8d	8b
=46	=46	=46	=46
4C	8c	4e	4cc
.	8g	.	.
4r	8g	4r	4r
.	8g	.	.
8c#	8g	8a	8ee
8r	8r	8r	16ee
.	.	.	16a
=47	=47	=47	=47
8d	8f	8a	16a
.	.	.	16aa
8r	8r	8r	8aa
8B	8g	8g	24dd
.	.	.	24cc#
.	.	.	24cc
8r	8r	8r	24b
.	.	.	24b-
.	.	.	24a
8c	8e	8g	8g
8r	8r	8r	8gg
=48	=48	=48	=48
4c	4G	4cc 4g	32c
.	.	.	16.e
.	.	.	32e
.	.	.	16.g
2r	2r	2r	32g
.	.	.	16.cc
.	.	.	32cc
.	.	.	16.ee
.	.	.	32ee
.	.	.	16.gg
.	.	.	32gg
.	.	.	16.ccc
=49	=49	=49	=49
8r	8r	4.g#	4.gg#
8F	8c	.	.
8F	8c	.	.
8F	8c	8a	8aa
8F	8d	8f	8ff
8F	8d	8f	8dd
=50	=50	=50	=50
8G	8e	8e	2cc
8G	8e	8e	.
8G	8g	8e	.
8G	8g	8e	.
8G	8B	8f	8.dd
8G	8B	8f	.
.	.	.	16cc
=51	=51	=51	=51
4c	4c	4G 4e	24c
.	.	.	24e
.	.	.	24d
.	.	.	24f
.	.	.	24e
.	.	.	24a
2r	2r	2r	24g
.	.	.	24cc
.	.	.	24b
.	.	.	24dd
.	.	.	24cc
.	.	.	24ee
.	.	.	24dd
.	.	.	24ff
.	.	.	24ee
.	.	.	24aa-
.	.	.	24gg
.	.	.	24ccc
=52	=52	=52	=52
8r	8r	2a-	2aa-
8F	8c	.	.
8F	8c	.	.
8F	8c	.	.
8G	8c 8e	4b-	4gg
8G	8e 8c	.	.
=53	=53	=53	=53
8A	8c 8e-	4cc	4ff#
8A	8e- 8c	.	.
8B	8d 8G	4dd	4ff
8B	8G 8d	.	.
8c	8c	4g	4ee
8c	8c	.	.
=54	=54	=54	=54
[2F	2d	[2a	[4dd
.	.	.	32dd]
.	.	.	32cc#
.	.	.	32dd
.	.	.	32cc#
.	.	.	32dd
.	.	.	32cc#
.	.	.	32dd
.	.	.	32cc#
8F]	8d	8a]	8dd
8G	8e	8b-	8cc#
=55	=55	=55	=55
8F	8d	8a	8dd
8r	8r	8r	8r
8D	8d	8a	8ff
8r	8r	8r	8r
4G	4d	8.f	8.b
.	.	16e	16cc
=56	=56	=56	=56
4C	8c	8e	4cc
.	8e	8g	.
4r	8c	8e	4r
.	8c	8e	.
4G	8d	8f	8.b
.	8d	8f	.
.	.	.	16cc
=57	=57	=57	=57
4C	8c	8e	4cc
.	8e	8g	.
4r	8c	8e	4r
.	8c	8e	.
4G	8d	8f	8.b
.	8d	8f	.
.	.	.	16cc
=58	=58	=58	=58
4C	8c	8e-	4cc
.	8c	8e-	.
2r	8c	8e-	4r
.	8c	8e-	.
.	8c	8e-	8.cc
.	8c	8e-	.
.	.	.	16dd-
=59	=59	=59	=59
8EE-	8G	16B-	[6..dd-
.	.	16d-	.
8EE-	8G	16B-	.
.	.	16d-	.
8EE-	8G	16B-	.
.	.	.	48dd-]
.	.	16d-	16cc
8EE-	8G	16B-	16b-
.	.	16d-	16a-
8EE-	8G	16B-	16g
.	.	16d-	16f
8EE-	8G	16B-	16e-
.	.	16d-	16d-
=60	=60	=60	=60
8EE	8G	16B-	4.c
.	.	16c	.
8EE	8G	16B-	.
.	.	16c	.
8EE	8G	16B-	.
.	.	16c	.
8EE	8G	16B-	8cc
.	.	16c	.
8EE	8G	16B-	8cc
.	.	16c	.
8EE	8G	16B-	8cc
.	.	16c	.
=61	=61	=61	=61
8FF	8A	16c	[6..ee-
.	.	16e-	.
8FF	8A	16c	.
.	.	16e-	.
8FF	8A	16c	.
.	.	.	48ee-]
.	.	16e-	16dd
8FF	8A	16c	16cc
.	.	16e-	16b-
8FF	8A	16c	16a
.	.	16e-	16g
8FF	8A	16c	16f
.	.	16e-	16e-
=62	=62	=62	=62
8FF#	8A	16c	4.d
.	.	16d	.
8FF#	8A	16c	.
.	.	16d	.
8FF#	8A	16c	.
.	.	16d	.
8FF#	8A	16c	8dd
.	.	16d	.
8FF#	8A	16c	8dd
.	.	16d	.
8FF#	8A	16c	8dd
.	.	16d	.
=63	=63	=63	=63
8GG	8G	8B-	4.bb-
8GG	8G	4dd	.
8GG	8G	.	.
8AA	8A	8cc	8aa
8BB-	8B-	8b-	8gg
8BB	8B	8a	8ff
=64	=64	=64	=64
4.C	4.c	4a	4ff
.	.	8g	4ee
8B-	8e	8g	.
8A	8f	8a	4r
8G	8e	8b-	.
=65	=65	=65	=65
4F	4c	4a	8.cc
.	.	.	32dd
.	.	.	32cc
4G	4e	4g	4b-
4A	4f	4f	4a
=66	=66	=66	=66
4B-	[4c	4e	8.g
.	.	.	16e
8A	8c]	8f	8f
8E	8e	8c	8g
8F	8f	8c	8a
8D	8f	8f	8b-
=67	=67	=67	=67
4AA	4f	2f	8.cc
.	.	.	32b-
.	.	.	32cc
2BB-	2d	.	8dd
.	.	.	8d
.	.	8d	8b-
.	.	8B-	8g
=68	=68	=68	=68
2C	4.c	4A	4f
.	.	8G	8e
.	8c	4.r	4.r
4r	8c	.	.
.	8c	.	.
=69	=69	=69	=69
2c	4E	4g	8.b-
.	.	.	32cc
.	.	.	32b-
.	4.c	4f	4a
4B-	.	4e	4g
.	8d-	.	.
=70	=70	=70	=70
4A	4c	4f 4c	8.cc
.	.	.	32dd
.	.	.	32ee
2r	2r	2r	16ff
.	.	.	16gg
.	.	.	16aa
.	.	.	16bb-
.	.	.	16ccc
.	.	.	16ddd
.	.	.	16eee
.	.	.	16fff
=71	=71	=71	=71
8BB-	8B-	8d	8r
8r	8r	8r	8d
8GG	8d	8b-	8r
8r	8r	8r	8b-
8C	8B-	8e	8r
8r	8r	8r	8e
=72	=72	=72	=72
8D	8A	8f	12r
.	.	.	12e
8r	8r	8r	.
.	.	.	12f
8BB-	8d	8dd	12r
.	.	.	12cc#
8r	8r	8r	.
.	.	.	12dd
8E	8c	8g	12r
.	.	.	12f#
8r	8r	8r	.
.	.	.	12g
=73	=73	=73	=73
8F	8c	8a	24r
.	.	.	24g#
.	.	.	24a
8r	8r	8r	24b-
.	.	.	24a
.	.	.	24cc
2D	2F	[4b	24r
.	.	.	24ee
.	.	.	24ff
.	.	.	24gg
.	.	.	24ff
.	.	.	24aa
.	.	8b]	24gg
.	.	.	24ff
.	.	.	24ee
.	.	16dd	24dd
.	.	.	24cc
.	.	16f	.
.	.	.	24b
=74	=74	=74	=74
2C	4G	4f	4b
.	2r	8e	8cc
.	.	8cc	4.r
4r	.	8cc	.
.	.	8cc	.
=75	=75	=75	=75
2.r	8b-	8cc	8gg
.	8r	8cc	16gg
.	.	.	16ee
.	8a	8cc	16ff
.	.	.	16ccc
.	8r	8cc	8ccc
.	8b-	8cc	8gg
.	8r	8cc	16gg
.	.	.	16ee
=76	=76	=76	=76
4r	8a	8cc	32ff
.	.	.	32gg
.	.	.	32aa
.	.	.	32bb-
.	8r	8cc	16ccc
.	.	.	16ccc
8B-	8B-	8cc	16ccc
.	.	.	16bb-
8r	8r	8cc	16gg
.	.	.	16ee
8A	8A	8cc	32ff
.	.	.	32gg
.	.	.	32aa
.	.	.	32bb-
8r	8r	8cc	32ccc
.	.	.	32ddd
.	.	.	32eee
.	.	.	32fff
=77	=77	=77	=77
4B-	4d	4f	16eee
.	.	.	16ddd
.	.	.	16ccc#
.	.	.	16ddd
4r	4r	4r	16ccc
.	.	.	16bb-
.	.	.	16aa
.	.	.	16bb-
4c	4g	4b-	16bb-
.	.	.	16gg
.	.	.	16ff
.	.	.	16ee
=78	=78	=78	=78
4F	8f	4a	4ff
.	8c	.	.
4r	8c	4r	4r
.	8c	.	.
8F#	8c	8d	8a
8r	8r	8r	16a
.	.	.	16d
=79	=79	=79	=79
8G	8B-	8d	16d
.	.	.	16dd
8r	8r	8r	8dd
8E	8B-	8c	24g
.	.	.	24f#
.	.	.	24f
8r	8r	8r	24e
.	.	.	24e-
.	.	.	24d
8F	8A	8c	8c
8r	8r	8r	8cc
=80	=80	=80	=80
4FF	4A	4A 4f	32A
.	.	.	16.c
.	.	.	32c
.	.	.	16.f
2r	2r	2r	32f
.	.	.	16.a
.	.	.	32a
.	.	.	16.cc
.	.	.	32cc
.	.	.	16.ff
.	.	.	32ff
.	.	.	16.aa
=81	=81	=81	=81
8r	8r	4.c#	4.cc#
8BB-	8F	.	.
8BB-	8F	.	.
8BB-	8F	8d	8dd
8BB-	8G	8B-	8b-
8BB-	8G	8B-	8g
=82	=82	=82	=82
8C	8A	8A	2f
8C	8A	8A	.
8C	8c	8A	.
8C	8c	8A	.
8C	8E	8B-	8.g
8C	8E	8B-	.
.	.	.	16f
=83	=83	=83	=83
4F	4F	4f 4A	24A
.	.	.	24c
.	.	.	24B-
.	.	.	24d
.	.	.	24c
.	.	.	24f
2r	2r	2r	24e
.	.	.	24g
.	.	.	24f
.	.	.	24a
.	.	.	24g
.	.	.	24b-
.	.	.	24a
.	.	.	24cc
.	.	.	24b-
.	.	.	24dd
.	.	.	24cc
.	.	.	24ff
=84	=84	=84	=84
8r	8r	2d-	2dd-
8BB-	8f	.	.
8BB-	8f	.	.
8BB-	8f	.	.
8E-	8e-	4g-	4cc
8E-	8e-	.	.
=85	=85	=85	=85
8D	8d	4f	4b
8D	8d	.	.
8E	8c	4g	4b-
8E	8c	.	.
8F	8c	4c	4a
8F	8c	.	.
=86	=86	=86	=86
[2B-	[2B-	[2d	[3..g
8B-]	8B-]	8d]	.
.	.	.	24g]
8c	8A	8e-	8f#
=87	=87	=87	=87
8B-	8B-	8d	8g
8r	8r	8r	8r
8G	8G	8d	8b-
8r	8r	8r	8r
8c	8c	8.B-	8.e
8r	8r	.	.
.	.	16A	16f
=88	=88	=88	=88
4F	8F	8A	8f
.	8A	8c	4.r
4r	8F	8A	.
.	8F	8A	.
4C	8.G	8.B-	8.e
.	16A	16A	16f
=89	=89	=89	=89
4F	8F	8A	8f
.	8A	8c	4.r
4r	8F	8A	.
.	8F	8A	.
4C	8.G	8.B-	8.e
.	16A	16A	16f
=90	=90	=90	=90
8FF	8A	8A	8f
4.r	4.r	4.r	4.r
8FF	8F	8A	8f
8r	8r	8r	8r
=91	=91	=91	=91
8FF	8F	8A	8f
2r	2r	2r	3..r
8r	8r	8r	.
.	.	.	24r
==	==	==	==
*-	*-	*-	*-
!!!RWG1: This file contains only pitch and duration data.
!!!RWG2: Transposing instruments are not transposed.
!!!RWG3: Spines may have incompatible meters.
!!!RWG4: Durations of rests and tied notes may be interpreted.
!!!RWG: Key is interpreted using the Humdrum key tool.
!!!GTL: 6 Quators ("Jungfernquartette")
!!!OPT: The Bird
!!!AFT: stage1
!!!END: 1997/04/15
!!!KEY: 3668758075
!!!EMD: Converted from MuseData to Humdrum Dec 16, 2000, by Andreas Kornstaedt using muse2kern.
!!!EMD: Manual editing by Craig Sapp, Nov 2001
